icons-rebrand/svg/closed-caption-badge-light.svg

<svg xmlns="http://www.w3.org/2000/svg" width="32" height="32" viewBox="0 0 32 32"><path d="M14.0249 18.1901C13.8229 18.3866 13.5832 18.5401 13.3202 18.6415C13.0573 18.7429 12.7766 18.79 12.4949 18.7801C12.2034 18.7906 11.9131 18.738 11.6438 18.6258C11.3745 18.5136 11.1327 18.3445 10.9349 18.1301C10.4175 17.5028 10.1599 16.7013 10.2149 15.8901C10.1718 15.153 10.3721 14.4222 10.7849 13.8101C10.9908 13.5395 11.2597 13.3234 11.5682 13.1805C11.8767 13.0375 12.2154 12.9722 12.5549 12.9901C13.0209 12.9761 13.4789 13.1101 13.8649 13.3701C14.0642 13.5125 14.2308 13.696 14.3532 13.9081C14.4757 14.1203 14.5513 14.3563 14.5749 14.6001H15.6049C15.5608 13.9711 15.2696 13.3851 14.7949 12.9701C14.186 12.4103 13.3815 12.1123 12.5549 12.1401C11.7043 12.1044 10.874 12.4063 10.2449 12.9801C9.87265 13.3631 9.58503 13.8201 9.4007 14.3214C9.21637 14.8227 9.13945 15.3572 9.17492 15.8901C9.12492 16.8341 9.39992 17.7651 9.95492 18.5301C10.2582 18.9001 10.6445 19.1934 11.0823 19.3862C11.5201 19.5791 11.9972 19.666 12.4749 19.6401C13.0357 19.6463 13.5892 19.5123 14.0849 19.2501C14.5257 19.0214 14.9008 18.6841 15.1749 18.2701C15.437 17.8774 15.5889 17.4215 15.6149 16.9501H14.5849C14.5649 17.4201 14.3649 17.8651 14.0249 18.1901ZM21.2919 18.1901C21.09 18.3867 20.8503 18.5404 20.5874 18.6418C20.3244 18.7432 20.0436 18.7903 19.7619 18.7801C19.4704 18.7904 19.1801 18.7377 18.9109 18.6255C18.6417 18.5133 18.3998 18.3443 18.2019 18.1301C17.6849 17.5026 17.4273 16.7013 17.4819 15.8901C17.4389 15.153 17.6392 14.4223 18.0519 13.8101C18.2577 13.5395 18.5266 13.3233 18.8351 13.1803C19.1436 13.0374 19.4824 12.9721 19.8219 12.9901C20.2879 12.9761 20.7459 13.1091 21.1319 13.3701C21.3312 13.5126 21.4977 13.696 21.6201 13.9082C21.7426 14.1204 21.8182 14.3563 21.8419 14.6001H22.8719C22.828 13.971 22.5368 13.385 22.0619 12.9701C21.4528 12.4106 20.6485 12.1126 19.8219 12.1401C18.9712 12.1041 18.1408 12.406 17.5119 12.9801C17.1394 13.3629 16.8516 13.8199 16.6673 14.3212C16.4829 14.8226 16.4061 15.3571 16.4419 15.8901C16.3919 16.8341 16.6669 17.7661 17.2219 18.5301C17.5251 18.9003 17.9113 19.1937 18.3491 19.3866C18.787 19.5794 19.2642 19.6663 19.7419 19.6401C20.3027 19.6462 20.8561 19.5121 21.3519 19.2501C21.7919 19.0211 22.1679 18.6841 22.4419 18.2701C22.7035 17.8771 22.8554 17.4214 22.8819 16.9501H21.8519C21.8329 17.4201 21.6319 17.8651 21.2919 18.1901Z M25 6.5H7C5.80693 6.50132 4.66311 6.97585 3.81948 7.81948C2.97585 8.66311 2.50132 9.80693 2.5 11V21C2.50132 22.1931 2.97585 23.3369 3.81948 24.1805C4.66311 25.0241 5.80693 25.4987 7 25.5H25C26.1931 25.4987 27.3369 25.0241 28.1805 24.1805C29.0241 23.3369 29.4987 22.1931 29.5 21V11C29.4987 9.80693 29.0241 8.66311 28.1805 7.81948C27.3369 6.97585 26.1931 6.50132 25 6.5ZM28.5 21C28.4987 21.9279 28.1295 22.8173 27.4734 23.4734C26.8173 24.1295 25.9279 24.4987 25 24.5H7C6.07207 24.4989 5.18244 24.1299 4.5263 23.4737C3.87015 22.8176 3.50106 21.9279 3.5 21V11C3.50106 10.0721 3.87015 9.18244 4.5263 8.5263C5.18244 7.87015 6.07207 7.50106 7 7.5H25C25.9279 7.50106 26.8176 7.87015 27.4737 8.5263C28.1299 9.18244 28.4989 10.0721 28.5 11V21Z"/></svg>

<svg width="32" height="32" viewBox="0 0 32 32" xmlns="http://www.w3.org/2000/svg"><path d="M14.025 18.19a2.089 2.089 0 0 1-1.53.59 2.023 2.023 0 0 1-1.56-.65 3.182 3.182 0 0 1-.72-2.24 3.368 3.368 0 0 1 .57-2.08 2.086 2.086 0 0 1 1.77-.82c.466-.014.924.12 1.31.38a1.715 1.715 0 0 1 .71 1.23h1.03a2.387 2.387 0 0 0-.81-1.63 3.153 3.153 0 0 0-2.24-.83 3.227 3.227 0 0 0-2.31.84 3.812 3.812 0 0 0-1.07 2.91c-.05.944.225 1.875.78 2.64a3.045 3.045 0 0 0 2.52 1.11 3.364 3.364 0 0 0 1.61-.39 2.92 2.92 0 0 0 1.09-.98 2.64 2.64 0 0 0 .44-1.32h-1.03c-.02.47-.22.915-.56 1.24ZM21.292 18.19a2.085 2.085 0 0 1-1.53.59 2.026 2.026 0 0 1-1.56-.65 3.186 3.186 0 0 1-.72-2.24 3.37 3.37 0 0 1 .57-2.08 2.085 2.085 0 0 1 1.77-.82c.466-.014.924.119 1.31.38a1.716 1.716 0 0 1 .71 1.23h1.03a2.385 2.385 0 0 0-.81-1.63 3.156 3.156 0 0 0-2.24-.83 3.224 3.224 0 0 0-2.31.84 3.807 3.807 0 0 0-1.07 2.91c-.05.944.225 1.876.78 2.64a3.042 3.042 0 0 0 2.52 1.11 3.367 3.367 0 0 0 1.61-.39c.44-.229.816-.566 1.09-.98a2.65 2.65 0 0 0 .44-1.32h-1.03c-.019.47-.22.915-.56 1.24Z"/><path d="M25 6.5H7A4.505 4.505 0 0 0 2.5 11v10A4.505 4.505 0 0 0 7 25.5h18a4.505 4.505 0 0 0 4.5-4.5V11A4.505 4.505 0 0 0 25 6.5ZM28.5 21a3.505 3.505 0 0 1-3.5 3.5H7A3.504 3.504 0 0 1 3.5 21V11A3.504 3.504 0 0 1 7 7.5h18a3.504 3.504 0 0 1 3.5 3.5v10Z"/></svg>
